images/buildings/apartments-narrow-right.svg

<?xml version="1.0" standalone="no"?><!DOCTYPE svg PUBLIC "-//W3C//DTD SVG 1.1//EN" "http://www.w3.org/Graphics/SVG/1.1/DTD/svg11.dtd"><svg width="432px" height="624px" version="1.1" xmlns="http://www.w3.org/2000/svg" xmlns:xlink="http://www.w3.org/1999/xlink" xml:space="preserve" style="fill-rule:evenodd;clip-rule:evenodd;stroke-linejoin:round;stroke-miterlimit:1.41421;"><g><g id="apartments-narrow-right" transform="matrix(1,0,0,1,3.0326,0)"><g transform="matrix(1,0,0,1,-2183.66,-296.875)"><path d="M2186.7,671.436l29.964,1.171l-1.011,-87.301l-28.953,86.13Z" style="fill:#cdac80;fill-rule:nonzero;"/></g><g transform="matrix(1,0,0,1,-2183.66,-296.875)"><path d="M2212.79,908.862l399.832,0.023l0,-321.708l-0.02,-2.258l-397.471,-0.021l-2.341,323.964Z" style="fill:#f5f0e0;fill-rule:nonzero;"/></g><g transform="matrix(1,0,0,1,-2183.66,-296.875)"><path d="M2269.25,634.479l-0.265,229.955l243.899,0l-0.159,-229.978l-243.475,0.023Z" style="fill:#5c5f60;fill-rule:nonzero;"/></g><g transform="matrix(1,0,0,1,-2183.66,-296.875)"><path d="M2390.29,639.139l-0.48,218.048l116.259,0l-0.089,-218.361l-115.69,0.313Z" style="fill:#323156;fill-rule:nonzero;"/></g><g transform="matrix(1,0,0,1,-2183.66,-296.875)"><path d="M2275.76,639.141l0,218.047l110.364,0l0,-218.362l-110.364,0.315Z" style="fill:#323156;fill-rule:nonzero;"/></g><g transform="matrix(1,0,0,1,-2183.66,-296.875)"><path d="M2230.49,673.949l318.782,-0.002l-12.048,-89.032l-294.923,-0.015l-11.811,89.049Z" style="fill:#cdac80;fill-rule:nonzero;"/></g><g transform="matrix(1,0,0,1,-2183.66,-296.875)"><path d="M2612.61,584.963l-397.48,0.121l0.244,-240.168l397.236,-0.358l0,240.405Z" style="fill:#f5f0e0;fill-rule:nonzero;"/></g><g transform="matrix(1,0,0,1,-2183.66,-296.875)"><path d="M2436.94,540.517l-75.928,0.156l-0.051,-151.61l76.081,-0.073l-0.102,151.527Z" style="fill:#5c5f60;fill-rule:nonzero;"/></g><g transform="matrix(1,0,0,1,-2183.66,-296.875)"><path d="M2431.04,534.745l-64.283,0.172l0,-66.36l64.283,-0.057l0,66.245Z" style="fill:#323156;fill-rule:nonzero;"/></g><g transform="matrix(1,0,0,1,-2183.66,-296.875)"><path d="M2431.04,462.704l-64.318,-0.056l0.035,-67.769l64.317,0.121l-0.034,67.704Z" style="fill:#323156;fill-rule:nonzero;"/></g><g transform="matrix(1,0,0,1,-2183.66,-296.875)"><path d="M2537.65,468.385l-53.963,0.066l-0.033,-63.645l54.068,-0.032l-0.072,63.611Z" style="fill:#5c5f60;fill-rule:nonzero;"/></g><g transform="matrix(1,0,0,1,-2183.66,-296.875)"><path d="M2531.72,462.418l-42.021,0.133l0,-51.178l42.021,-0.045l0,51.09Z" style="fill:#323156;fill-rule:nonzero;"/></g><g transform="matrix(1,0,0,1,-2183.66,-296.875)"><path d="M2345.21,540.517l-75.927,0.156l-0.052,-151.61l76.079,-0.073l-0.1,151.527Z" style="fill:#5c5f60;fill-rule:nonzero;"/></g><g transform="matrix(1,0,0,1,-2183.66,-296.875)"><path d="M2339.3,534.745l-64.284,0.172l0,-66.36l64.284,-0.057l0,66.245Z" style="fill:#323156;fill-rule:nonzero;"/></g><g transform="matrix(1,0,0,1,-2183.66,-296.875)"><path d="M2339.3,462.704l-64.321,-0.056l0.037,-67.789l64.317,0.004l-0.033,67.841Z" style="fill:#323156;fill-rule:nonzero;"/></g><g transform="matrix(1,0,0,1,-2183.66,-296.875)"><rect x="2366.49" y="462.692" width="65.172" height="5.653" style="fill:#5c5f60;fill-rule:nonzero;"/></g><g transform="matrix(1,0,0,1,-2183.66,-296.875)"><g opacity="0.300003"><path d="M2275.75,673.956l-0.053,183.231l42.903,-0.013l151.713,-145.123l32.197,-38.114l-226.76,0.019Z" style="fill:#0d1824;fill-rule:nonzero;"/></g></g><g transform="matrix(1,0,0,1,-2183.66,-296.875)"><path d="M2500.42,673.947l-182.691,183.23l9.086,0.008l179.177,-179.369l-0.008,-3.848l-5.564,-0.021Z" style="fill:#494a72;fill-rule:nonzero;"/></g><g transform="matrix(1,0,0,1,-2183.66,-296.875)"><rect x="2386.14" y="673.938" width="7.436" height="186.321" style="fill:#5c5f60;fill-rule:nonzero;"/></g><g transform="matrix(1,0,0,1,-2183.66,-296.875)"><g opacity="0.300003"><path d="M2326.54,394.834l-51.494,51.326l-0.012,-51.285l51.506,-0.041Z" style="fill:#0d1824;fill-rule:nonzero;"/></g></g><g transform="matrix(1,0,0,1,-2183.66,-296.875)"><g opacity="0.300003"><path d="M2431.05,534.734l0.023,-66.234l-8.381,-0.004l-55.891,53.845l-0.043,12.596l64.292,-0.203Z" style="fill:#0d1824;fill-rule:nonzero;"/></g></g><g transform="matrix(1,0,0,1,-2183.66,-296.875)"><path d="M2366.77,528.951l60.238,-60.449l-9.31,0.013l-50.936,51.006l0.008,9.43Z" style="fill:#494a72;fill-rule:nonzero;"/></g><g transform="matrix(1,0,0,1,-2183.66,-296.875)"><path d="M2431.03,462.676l0.025,-7.554l-7.553,7.564l7.528,-0.01Z" style="fill:#494a72;fill-rule:nonzero;"/></g><g transform="matrix(1,0,0,1,-2183.66,-296.875)"><rect x="2273.28" y="462.661" width="68.914" height="5.905" style="fill:#5c5f60;fill-rule:nonzero;"/></g><g transform="matrix(1,0,0,1,-2183.66,-296.875)"><path d="M2215.35,344.916l-4.464,-9.479l401.719,0.022l0.026,9.394l-397.281,0.063Z" style="fill:#cdac80;fill-rule:nonzero;"/></g><g transform="matrix(1,0,0,1,-2183.66,-296.875)"><path d="M2210.91,335.44l-4.203,-13.48l0.018,-11.397l6.75,0l0.001,11.397l399.106,0.001l0.024,13.499l-401.696,-0.02Z" style="fill:#fff;fill-rule:nonzero;"/></g><g transform="matrix(1,0,0,1,-2183.66,-296.875)"><g opacity="0.300003"><path d="M2453.2,857.184l52.848,-52.709l0.018,52.697l-52.866,0.012Z" style="fill:#0d1824;fill-rule:nonzero;"/></g></g><g transform="matrix(1,0,0,1,-2183.66,-296.875)"><rect x="2212.78" y="908.859" width="399.848" height="12.016" style="fill:#352d27;fill-rule:nonzero;"/></g></g></g></svg>

<?xml version="1.0" encoding="UTF-8" standalone="no"?>
<!DOCTYPE svg PUBLIC "-//W3C//DTD SVG 1.1//EN" "http://www.w3.org/Graphics/SVG/1.1/DTD/svg11.dtd">
<svg width="100%" height="100%" viewBox="0 0 432 624" version="1.1" xmlns="http://www.w3.org/2000/svg" xmlns:xlink="http://www.w3.org/1999/xlink" xml:space="preserve" style="fill-rule:evenodd;clip-rule:evenodd;stroke-linejoin:round;stroke-miterlimit:1.41421;">
    <g id="apartments-narrow-right" transform="matrix(1,0,0,1,3.0326,0)">
        <g transform="matrix(1,0,0,1,-2186.19,-296.875)">
            <path d="M2186.7,671.436L2216.66,672.607L2215.65,585.306L2186.7,671.436Z" style="fill:rgb(205,172,128);fill-rule:nonzero;"/>
        </g>
        <g transform="matrix(1,0,0,1,-2183.66,-296.875)">
            <path d="M2212.63,908.875L2612.63,908.875L2612.6,342.875L2212.63,342.875L2212.63,908.875Z" style="fill:rgb(245,240,224);fill-rule:nonzero;"/>
        </g>
        <g transform="matrix(1,0,0,1,-2183.66,-296.875)">
            <path d="M2269.25,634.479L2268.99,864.434L2512.88,864.434L2512.72,634.456L2269.25,634.479Z" style="fill:rgb(92,95,96);fill-rule:nonzero;"/>
        </g>
        <g transform="matrix(1,0,0,1,-2183.66,-296.875)">
            <path d="M2390.29,639.139L2389.81,857.187L2506.07,857.187L2505.98,638.826L2390.29,639.139Z" style="fill:rgb(50,49,86);fill-rule:nonzero;"/>
        </g>
        <g transform="matrix(1,0,0,1,-2183.66,-296.875)">
            <path d="M2275.76,639.141L2275.76,857.188L2386.12,857.188L2386.12,638.826L2275.76,639.141Z" style="fill:rgb(50,49,86);fill-rule:nonzero;"/>
        </g>
        <g transform="matrix(1,0,0,1,-2183.66,-296.875)">
            <path d="M2230.49,673.949L2549.27,673.947L2537.22,584.915L2242.3,584.9L2230.49,673.949Z" style="fill:rgb(205,172,128);fill-rule:nonzero;"/>
        </g>
        <g transform="matrix(1,0,0,1,-2183.66,-296.875)">
            <path d="M2436.94,540.517L2361.01,540.673L2360.96,389.063L2437.04,388.99L2436.94,540.517Z" style="fill:rgb(92,95,96);fill-rule:nonzero;"/>
        </g>
        <g transform="matrix(1,0,0,1,-2183.66,-296.875)">
            <path d="M2431.04,534.745L2366.76,534.917L2366.76,468.557L2431.04,468.5L2431.04,534.745Z" style="fill:rgb(50,49,86);fill-rule:nonzero;"/>
        </g>
        <g transform="matrix(1,0,0,1,-2183.66,-296.875)">
            <path d="M2431.04,462.704L2366.72,462.648L2366.76,394.879L2431.07,395L2431.04,462.704Z" style="fill:rgb(50,49,86);fill-rule:nonzero;"/>
        </g>
        <g transform="matrix(1,0,0,1,-2183.66,-296.875)">
            <path d="M2537.65,468.385L2483.69,468.451L2483.66,404.806L2537.72,404.774L2537.65,468.385Z" style="fill:rgb(92,95,96);fill-rule:nonzero;"/>
        </g>
        <g transform="matrix(1,0,0,1,-2183.66,-296.875)">
            <path d="M2531.72,462.418L2489.7,462.551L2489.7,411.373L2531.72,411.328L2531.72,462.418Z" style="fill:rgb(50,49,86);fill-rule:nonzero;"/>
        </g>
        <g transform="matrix(1,0,0,1,-2183.66,-296.875)">
            <path d="M2345.21,540.517L2269.28,540.673L2269.23,389.063L2345.31,388.99L2345.21,540.517Z" style="fill:rgb(92,95,96);fill-rule:nonzero;"/>
        </g>
        <g transform="matrix(1,0,0,1,-2183.66,-296.875)">
            <path d="M2339.3,534.745L2275.02,534.917L2275.02,468.557L2339.3,468.5L2339.3,534.745Z" style="fill:rgb(50,49,86);fill-rule:nonzero;"/>
        </g>
        <g transform="matrix(1,0,0,1,-2183.66,-296.875)">
            <path d="M2339.3,462.704L2274.98,462.648L2275.02,394.859L2339.34,394.863L2339.3,462.704Z" style="fill:rgb(50,49,86);fill-rule:nonzero;"/>
        </g>
        <g transform="matrix(1,0,0,1,-2183.66,-296.875)">
            <rect x="2366.49" y="462.692" width="65.172" height="5.653" style="fill:rgb(92,95,96);fill-rule:nonzero;"/>
        </g>
        <g transform="matrix(1,0,0,1,-2183.66,-296.875)">
            <g opacity="0.300003">
                <path d="M2275.75,673.956L2275.69,857.187L2318.6,857.174L2470.31,712.051L2502.51,673.937L2275.75,673.956Z" style="fill:rgb(13,24,36);fill-rule:nonzero;"/>
            </g>
        </g>
        <g transform="matrix(1,0,0,1,-2183.66,-296.875)">
            <path d="M2500.42,673.947L2317.73,857.177L2326.82,857.185L2505.99,677.816L2505.99,673.968L2500.42,673.947Z" style="fill:rgb(73,74,114);fill-rule:nonzero;"/>
        </g>
        <g transform="matrix(1,0,0,1,-2183.66,-296.875)">
            <rect x="2386.14" y="673.938" width="7.436" height="186.321" style="fill:rgb(92,95,96);fill-rule:nonzero;"/>
        </g>
        <g transform="matrix(1,0,0,1,-2183.66,-296.875)">
            <g opacity="0.300003">
                <path d="M2326.54,394.834L2275.05,446.16L2275.04,394.875L2326.54,394.834Z" style="fill:rgb(13,24,36);fill-rule:nonzero;"/>
            </g>
        </g>
        <g transform="matrix(1,0,0,1,-2183.66,-296.875)">
            <g opacity="0.300003">
                <path d="M2431.05,534.734L2431.07,468.5L2422.69,468.496L2366.8,522.341L2366.76,534.937L2431.05,534.734Z" style="fill:rgb(13,24,36);fill-rule:nonzero;"/>
            </g>
        </g>
        <g transform="matrix(1,0,0,1,-2183.66,-296.875)">
            <path d="M2366.77,528.951L2427.01,468.502L2417.7,468.515L2366.76,519.521L2366.77,528.951Z" style="fill:rgb(73,74,114);fill-rule:nonzero;"/>
        </g>
        <g transform="matrix(1,0,0,1,-2183.66,-296.875)">
            <path d="M2431.03,462.676L2431.05,455.122L2423.5,462.686L2431.03,462.676Z" style="fill:rgb(73,74,114);fill-rule:nonzero;"/>
        </g>
        <g transform="matrix(1,0,0,1,-2183.66,-296.875)">
            <rect x="2273.28" y="462.661" width="68.914" height="5.905" style="fill:rgb(92,95,96);fill-rule:nonzero;"/>
        </g>
        <g transform="matrix(1,0,0,1,-2186.34,-298.875)">
            <path d="M2215.31,344.875L2210.89,335.437L2615.31,335.459L2615.31,344.875L2215.31,344.875Z" style="fill:rgb(205,172,128);fill-rule:nonzero;"/>
        </g>
        <g transform="matrix(1,0,0,1,-2186.34,-298.875)">
            <path d="M2210.91,335.44L2206.71,321.96L2206.73,310.563L2213.48,310.563L2213.48,321.96L2615.31,321.961L2615.31,335.46L2210.91,335.44Z" style="fill:white;fill-rule:nonzero;"/>
        </g>
        <g transform="matrix(1,0,0,1,-2183.66,-296.875)">
            <g opacity="0.300003">
                <path d="M2453.2,857.184L2506.05,804.475L2506.06,857.172L2453.2,857.184Z" style="fill:rgb(13,24,36);fill-rule:nonzero;"/>
            </g>
        </g>
        <g transform="matrix(1.00038,9.31085e-20,9.31085e-20,1,-2184.65,-296.875)">
            <rect x="2212.78" y="908.875" width="399.848" height="12" style="fill:rgb(53,45,39);fill-rule:nonzero;"/>
        </g>
    </g>
</svg>
